X: 325
T: Zdrobolianka (Moldavian Dance)
R:
O: Moldavia
Q: 1/4=132
B: German Goldenshteyn "Shpilt klezmorimlach klingen zoln di gesalach" New York 2003 v.3 #25
Z: 2012 John Chambers <jc:trillian.mit.edu>
N: The 1st and 2nd 8 bars were written out; they have been transcribed as a repeat with two endings.
N: The last G in the tune should probably be sharp.
M: 2/4
L: 1/8
K: Em
|:\
E4 | E>F GA | B4 | e4 |\
(3(ed^c) d2 | (3(d=cB) (cA) |[1 B3 ^G | (3(BA^G) (3=FED :|[2 B4- | BB c^c ||
|:\
(3(ed^c) d2 | (3(d=cB) c2 | (~BA) (3(A^GA) | (3(BA^G) (~=F>E) |\
(B/d/)c cc | (3(fe^d) (3(cBA) | B4- | BB c^c |
(3(ed^c) d2 | (3(d=cB) c2 | (~BA) (3(A^GA) | (3(BA^G) (~=F>E) |\
(E/G/)=F FF | (3(BA^G) (3(=FED) |[1 E4- | EB c^c :|[2 E4- | E2 z2 ||
|:\
(3(^GAB) (3(GA^A) | (3(B=A^G) (~=F>E) | ^G>E G>A | B2 e2 |\
(3(^GAB) (3(GA^A) | (3(B=A^G) (~=F>E) |[1 (E>=F) (E>F) | D2 z2 :|[2 (3(G=FE) (3(DEF) | E2 z2 |]
